assets/dist/images/integrations/zapier/outer-circles.svg

<svg xmlns="http://www.w3.org/2000/svg" width="796" height="796" viewBox="0 0 796 796">
  <g fill="none" fill-rule="evenodd" transform="translate(2.934 2.934)">
    <circle cx="395.066" cy="395.066" r="360" stroke="#F1F1F1" stroke-width="2"/>
    <path stroke="#E1E1E1" stroke-dasharray="2378.4 238" stroke-linecap="round" stroke-linejoin="round" stroke-width="4" d="M592.565955,52.9859207 C403.640369,-56.0903174 162.062159,8.64036896 52.9859207,197.565955 C-56.0903174,386.491541 8.64036896,628.069752 197.565955,737.14599 C386.491541,846.222228 628.069752,781.491541 737.14599,592.565955 C846.222228,403.640369 781.491541,162.062159 592.565955,52.9859207 Z"/>
    <circle cx="395.066" cy="395.066" r="290" stroke="#F1F1F1" stroke-width="2"/>
    <path stroke="#E1E1E1" stroke-dasharray="1943.9 238" stroke-linecap="round" stroke-linejoin="round" stroke-width="4" d="M81.1400617,310.949766 C34.6839729,484.326249 137.573282,662.53576 310.949766,708.991849 C484.326249,755.447938 662.53576,652.558628 708.991849,479.182145 C755.447938,305.805661 652.558628,127.59615 479.182145,81.1400617 C305.805661,34.6839729 127.59615,137.573282 81.1400617,310.949766 Z"/>
    <path stroke="#E1E1E1" stroke-linecap="round" stroke-linejoin="round" stroke-width="4" d="M363.989273,648.165224 C503.772139,665.328402 631.002046,565.925504 648.165224,426.142638 C665.328402,286.359772 565.925504,159.129864 426.142638,141.966687 C286.359772,124.803509 159.129864,224.206406 141.966687,363.989273"/>
  </g>
</svg>

<svg xmlns="http://www.w3.org/2000/svg" width="796" height="796" viewBox="0 0 796 796"><g fill="none" fill-rule="evenodd" transform="translate(2.934 2.934)"><circle cx="395.066" cy="395.066" r="360" stroke="#F1F1F1" stroke-width="2"/><path stroke="#E1E1E1" stroke-dasharray="2378.4 238" stroke-linecap="round" stroke-linejoin="round" stroke-width="4" d="M592.566 52.986C403.64-56.09 162.062 8.64 52.986 197.566-56.09 386.492 8.64 628.07 197.566 737.146c188.926 109.076 430.504 44.346 539.58-144.58 109.076-188.926 44.346-430.504-144.58-539.58z"/><circle cx="395.066" cy="395.066" r="290" stroke="#F1F1F1" stroke-width="2"/><path stroke="#E1E1E1" stroke-dasharray="1943.9 238" stroke-linecap="round" stroke-linejoin="round" stroke-width="4" d="M81.14 310.95c-46.456 173.376 56.433 351.586 229.81 398.042 173.376 46.456 351.586-56.433 398.042-229.81 46.456-173.376-56.433-351.586-229.81-398.042C305.806 34.684 127.596 137.573 81.14 310.95z"/><path stroke="#E1E1E1" stroke-linecap="round" stroke-linejoin="round" stroke-width="4" d="M363.99 648.165c139.782 17.163 267.012-82.24 284.175-222.022 17.163-139.783-82.24-267.013-222.022-284.176-139.783-17.163-267.013 82.24-284.176 222.022"/></g></svg>
